X:22
T:the Lass of Richmond Hill
C:Fiona Turnbull
%
P:the Lass of Richmond Hill
C:James Hook c.1790
N:Arranged by Maureen Rutherford
R:reel
N:Suggested tune for The Lass of Richmond Hill
B:RSCDS "A Second Book of Graded Scottish Country Dances" (Graded 2) p.45 #22
Z:2011 John Chambers <jc:trillian.mit.edu>
M:2/4
L:1/16
K:D
A2 |\
"D"A2d2 "F#/D"d2d2 | "Em"edcd "A7"e2g2 | "D"f2d2 "G/Em"B2e2 | "G#/E7"d4 "A7"c2A2 |
"D"A2d2 "F#/D"d2d2 | "G#/E7"edcd "A"e3d | "F#m"c2A2 "E7"B2^G2 | "A"A4 "C#/A"A2"B/E7"d2 |
"A"c2A2 "C#/A"A2"D"d2 | "A7"c2A2 "F#/D"A2d2 | "A"c2e2 "C#/A"g2"D"f2 | "Em"f4 "G/Em"e2d2 |
"A"c2A2 "C#/A"A2"Bm"d2 | "A7"c2A2 "F#/D"a3d | "A"c3d "C#/A7"e2c2 | "D"d4 "D"d2"A7"A2 ||
|: "D"A2d2 "A/D"d2f2 | "D"f4 "F#/D"f2d2 | "A"c2e2 "C#/A"e2g2 | "Em"g4 "A"g3e |
"D"f3e "F#7"d2c2 | "G"d2B2 "F#m"A2"G"G2 | "A/D"F2d2 "A7"E2c2 |1 "D"d4 d2A2 :|2 "D"d4 d2 |]
